X: 10201
T: GOV. JONES'S MARCH
C:
%R: march
B: Elias Howe "The Musician's Companion" Part 1 1842 p.20 #1
S: http://imslp.org/wiki/The_Musician's_Companion_(Howe,_Elias)
Z: 2015 John Chambers <jc:trillian.mit.edu>
M: C
L: 1/8
K: G
% - - - - - - - - - - - - - - - - - - - - - - - - -
V: 1 staves=3
D2 |\
G2G>D B2B>G | d>gf>g d3d | e>cB>c d>BG>B | A2A>A A2D2 |\
G2G>D B2B>G | d>gf>g d3d | e>cB>c A2F>A | G2G>G G2 :|
|: B>c |\
d2B>d G2E>G | C2C>C C2c>d | e2c>e A2F>A | D2D>D DEFD |\
G2G>D B2B>G | d>gf>g d3d | e>cB>c A2F>A | G2G>G G2 :|
% - - - - - - - - - - - - - - - - - - - - - - - - -
V: 2
D2 |\
B,2z2 G2G>D | B2B2 B3B | c>A^G>B B>GD>G | F2F>F F2D2 |\
B,2z2 G2G>D | B2B2 B3B | c>A^G>A F2D>C | B,2B,>B, B,2  :|
|: z2 |\
z4 G2E>G | C2C>C C2z2 | z4 A2F>A | D2D>D D2z2 |\
B,2z2 G2G>D | B2B2 B3B | c>A ^G>A F2D>C | B,2B,>B, B,2 :|
% - - - - - - - - - - - - - - - - - - - - - - - - -
V: 3 clef=bass middle=d
d2 |\
g2z2 g2z2 | g2g2 g2z2 | f2z2 g2b>g | d2d>d d2z2 |\
g2z2 g2z2 | g2g2 g2z2 | c2c2 d2d2 | G2G>G G2 :|
|: z2 |\
z4 g2e>g | c2c>c c2z2 | z4 a2f>a | d2d>d d2z2 |\
G2z2 G2z2 | G2G2 G2z2 | c2c2 d2d2 | g2d>B G2 :|
% - - - - - - - - - - - - - - - - - - - - - - - - -


